X:1655
R:Visa
B:August Bondesons Visbok nr 208
Z:[[Profiles/Tommy Rådberg]]
T:Edvin och Emma
M:3/8
L:1/8
K:G
D2G|B2A|G2D|F2A|c2F|G3|D2G|B2A|G2D|F2A|c2F|G3|F2G|e2d|d2c|G2d|c2B|A3|D2G|B2G|E2C|D2D|F2F|G3|]
(:musicend:)

[[!Ackord]]
(:music:)
